dist/svgs/crypto-icons/icons/zeit.svg

<?xml version="1.0" encoding="UTF-8" standalone="yes"?>
<svg xmlns="http://www.w3.org/2000/svg" xmlns:xlink="http://www.w3.org/1999/xlink" width="512px" height="512px" viewBox="0 0 384 384" version="1.1">
  <g id="surface1">
    <path style=" stroke:none;fill-rule:nonzero;fill:rgb(0%,0%,0%);fill-opacity:1;" d="M 292.839844 28.75 C 263.5 10.53125 228.886719 0 191.808594 0 C 181.535156 0 171.445312 0.816406 161.605469 2.375 L 292.839844 133.171875 Z M 378.554688 147.949219 C 370.6875 114.320312 353.660156 82.398438 327.441406 56.179688 C 320.289062 49.027344 312.589844 42.449219 304.410156 36.503906 L 304.714844 221.78125 Z M 381.246094 161.609375 L 250.457031 292.84375 L 354.875 292.84375 C 373.09375 263.5 383.621094 228.886719 383.625 191.808594 C 383.621094 181.695312 382.828125 171.597656 381.246094 161.609375 Z M 235.675781 378.554688 C 269.304688 370.6875 301.226562 353.660156 327.441406 327.441406 C 334.59375 320.289062 341.171875 312.589844 347.121094 304.410156 L 161.835938 304.71875 Z M 90.78125 354.875 C 120.121094 373.09375 154.734375 383.621094 191.8125 383.621094 C 201.925781 383.621094 212.023438 382.828125 222.015625 381.25 L 90.78125 250.453125 Z M 5.070312 235.679688 C 12.933594 269.304688 29.960938 301.222656 56.179688 327.441406 C 63.332031 334.59375 71.035156 341.171875 79.214844 347.121094 L 78.90625 161.835938 Z M 28.746094 90.78125 C 10.53125 120.121094 0 154.734375 0 191.8125 C 0 202.085938 0.816406 212.171875 2.375 222.015625 L 133.171875 90.78125 Z M 147.949219 5.070312 C 114.320312 12.9375 82.398438 29.960938 56.175781 56.179688 C 49.027344 63.332031 42.449219 71.035156 36.503906 79.214844 L 221.78125 78.902344 Z M 168.273438 109.246094 C 173.269531 109.246094 190.632812 101.878906 205.203125 98.738281 C 200.765625 98.105469 196.289062 97.78125 191.808594 97.78125 C 175.894531 97.757812 160.238281 101.792969 146.316406 109.507812 C 155.511719 108.5625 164.84375 109.246094 168.273438 109.246094 Z M 233.546875 259.292969 C 228.867188 261.636719 220.285156 273.078125 215.867188 275.679688 C 212.941406 277.398438 211.042969 281.84375 208.8125 284.289062 C 243.222656 278.003906 271.097656 253.003906 281.46875 220.207031 C 281.183594 219.082031 280.640625 217.96875 279.265625 217.429688 C 275.308594 215.867188 272.816406 220.550781 268.914062 214.828125 C 265.015625 209.105469 269.695312 196.625 273.078125 193.871094 C 276.457031 191.128906 276.199219 182.058594 275.386719 178.417969 C 274.578125 174.777344 276.457031 171.398438 278.535156 170.617188 C 280.617188 169.835938 277.757812 166.195312 275.9375 163.597656 C 274.117188 160.996094 268.839844 152.699219 272.816406 151.375 C 274.109375 150.941406 276.019531 152.242188 278.15625 154.539062 C 273.117188 142.910156 265.785156 132.414062 256.59375 123.683594 C 256.292969 126.765625 253.875 129.230469 250.453125 129.144531 C 245.511719 129.023438 247.851562 137.070312 242.90625 138.890625 C 237.964844 140.710938 234.066406 119.386719 232.765625 114.707031 C 231.464844 110.023438 221.066406 104.304688 216.382812 107.167969 C 211.699219 110.023438 224.964844 119.125 226.003906 123.027344 C 227.046875 126.929688 222.882812 136.292969 223.664062 141.234375 C 224.445312 146.171875 232.507812 155.277344 232.246094 159.179688 C 231.988281 163.078125 224.703125 159.4375 224.183594 161.613281 C 223.664062 163.789062 216.902344 163.859375 212.21875 163.339844 C 207.539062 162.816406 212.480469 168.019531 207.019531 169.320312 C 201.558594 170.621094 195.316406 182.582031 191.808594 184.925781 C 188.296875 187.261719 193.496094 195.84375 193.238281 199.746094 C 192.980469 203.648438 202.863281 202.867188 205.722656 205.988281 C 208.578125 209.109375 199.21875 207.804688 194.539062 205.726562 C 189.859375 203.648438 185.695312 200.003906 188.558594 197.664062 C 191.417969 195.324219 188.039062 191.425781 181.277344 188.5625 C 174.515625 185.703125 165.152344 191.425781 165.152344 198.707031 C 165.152344 205.988281 169.574219 206.25 175.558594 202.085938 C 181.535156 197.925781 173.214844 208.589844 181.277344 210.410156 C 189.339844 212.226562 181.277344 215.871094 187.261719 220.03125 C 193.242188 224.195312 198.960938 216.390625 210.144531 218.210938 C 221.324219 220.03125 228.605469 227.574219 230.949219 231.476562 C 233.289062 235.375 246.289062 233.296875 248.113281 238.238281 C 249.933594 243.175781 238.230469 256.957031 233.546875 259.292969 Z M 233.546875 259.292969 "/>
    <path style=" stroke:none;fill-rule:nonzero;fill:rgb(0%,0%,0%);fill-opacity:1;" d="M 97.78125 191.808594 C 97.78125 243.742188 139.878906 285.84375 191.808594 285.84375 C 195.804688 285.84375 199.738281 285.589844 203.597656 285.109375 C 200.71875 282.617188 201.453125 275.234375 202.601562 266.054688 C 203.902344 255.65625 197.921875 254.613281 191.292969 247.332031 C 184.660156 240.050781 189.339844 234.328125 191.808594 230.949219 C 194.28125 227.566406 190.636719 224.707031 186.21875 223.40625 C 181.796875 222.105469 182.320312 218.464844 178.9375 216.125 C 175.558594 213.785156 173.996094 214.042969 161.609375 209.363281 C 149.222656 204.683594 156.054688 203.644531 146.691406 193.890625 C 137.328125 184.136719 134.207031 168.273438 138.601562 161.253906 C 142.992188 154.230469 138.367188 149.03125 137.328125 144.871094 C 136.289062 140.707031 143.570312 139.148438 138.109375 130.960938 C 132.648438 122.777344 128.746094 136.285156 124.847656 136.285156 C 122.699219 136.285156 122.917969 131.46875 123.546875 127.144531 C 107.578125 144 97.78125 166.761719 97.78125 191.808594 Z M 97.78125 191.808594 "/>
  </g>
</svg>

<svg xmlns="http://www.w3.org/2000/svg" viewBox="0 0 384 384"><path d="M292.84 28.75C263.5 10.531 228.887 0 191.809 0a192.98 192.98 0 00-30.204 2.375L292.84 133.172zm85.715 119.2c-7.868-33.63-24.895-65.552-51.114-91.77a193.263 193.263 0 00-23.03-19.676l.304 185.277zm2.691 13.66L250.457 292.843h104.418c18.219-29.344 28.746-63.957 28.75-101.035a193.52 193.52 0 00-2.379-30.2zm-145.57 216.945c33.629-7.868 65.55-24.895 91.765-51.114a193.657 193.657 0 0019.68-23.03l-185.285.308zM90.78 354.875c29.34 18.219 63.953 28.746 101.031 28.746 10.114 0 20.211-.793 30.204-2.371L90.78 250.453zM5.071 235.68c7.863 33.625 24.89 65.543 51.109 91.761a193.695 193.695 0 0023.035 19.68l-.309-185.285zm23.674-144.9C10.531 120.121 0 154.734 0 191.812c0 10.274.816 20.36 2.375 30.204L133.172 90.78zM147.95 5.071C114.32 12.937 82.4 29.96 56.176 56.18a193.63 193.63 0 00-19.672 23.035l185.277-.313zm20.324 104.175c4.997 0 22.36-7.367 36.93-10.508a94.89 94.89 0 00-13.394-.957 93.567 93.567 0 00-45.493 11.727c9.196-.945 18.528-.262 21.957-.262zm65.274 150.047c-4.68 2.344-13.262 13.785-17.68 16.387-2.926 1.718-4.824 6.164-7.054 8.61 34.41-6.286 62.285-31.286 72.656-64.083-.285-1.125-.828-2.238-2.203-2.777-3.957-1.563-6.45 3.12-10.352-2.602-3.898-5.723.781-18.203 4.164-20.957 3.379-2.742 3.121-11.812 2.309-15.453-.809-3.64 1.07-7.02 3.148-7.8 2.082-.782-.777-4.423-2.598-7.02-1.82-2.602-7.097-10.899-3.12-12.223 1.292-.434 3.203.867 5.34 3.164a94.225 94.225 0 00-21.563-30.855c-.301 3.082-2.719 5.546-6.14 5.46-4.942-.12-2.602 7.926-7.548 9.747-4.941 1.82-8.84-19.504-10.14-24.184-1.301-4.684-11.7-10.402-16.383-7.539-4.684 2.855 8.582 11.957 9.62 15.86 1.044 3.902-3.12 13.265-2.339 18.206.781 4.938 8.844 14.043 8.582 17.946-.258 3.898-7.543.257-8.062 2.433-.52 2.176-7.282 2.246-11.965 1.727-4.68-.524.261 4.68-5.2 5.98-5.46 1.301-11.703 13.262-15.21 15.606-3.512 2.336 1.687 10.918 1.43 14.82-.259 3.902 9.624 3.121 12.484 6.242 2.855 3.121-6.504 1.817-11.184-.261-4.68-2.079-8.844-5.723-5.98-8.063 2.859-2.34-.52-6.238-7.282-9.101-6.761-2.86-16.125 2.863-16.125 10.144 0 7.281 4.422 7.543 10.407 3.379 5.976-4.16-2.344 6.504 5.718 8.324 8.063 1.817 0 5.461 5.985 9.621 5.98 4.164 11.699-3.64 22.883-1.82 11.18 1.82 18.46 9.363 20.804 13.266 2.34 3.898 15.34 1.82 17.164 6.761 1.82 4.938-9.883 18.719-14.566 21.055zm0 0"/><path d="M97.781 191.809c0 51.933 42.098 94.035 94.028 94.035 3.996 0 7.93-.254 11.789-.735-2.88-2.492-2.145-9.875-.996-19.054 1.3-10.399-4.68-11.442-11.309-18.723-6.633-7.281-1.953-13.004.516-16.383 2.472-3.383-1.172-6.242-5.59-7.543-4.422-1.3-3.899-4.941-7.281-7.281-3.38-2.34-4.942-2.082-17.329-6.762-12.386-4.68-5.554-5.718-14.918-15.472-9.363-9.754-12.484-25.618-8.09-32.637 4.391-7.024-.234-12.223-1.273-16.383-1.039-4.164 6.242-5.723.781-13.91-5.46-8.184-9.363 5.324-13.261 5.324-2.149 0-1.93-4.816-1.301-9.14C107.578 144 97.78 166.762 97.78 191.809zm0 0"/></svg>
